X:121
T:Good King Wenceslas
T:Tempus Adest Floridum
C:From "Piae Cantiones," 1582
L:1/4
M:4/4
Q:1/4=110
P:BABABABABAB
V:S
%%MIDI program 1 19 %Church Organ
V:A
%%MIDI program 2 60 %French Horn
V:T clef=treble_8
%%MIDI program 3 57 %Trombone
%%score (S A) T
K:Fmaj
P:A
[V:S]
F F F G | F F C2 | D C D E | F2 F2 |
F F F G | F F C2 | D C D E | F2 F2 |
c B A G | A G F2 | D C D E | F2 F2 |
%
[V:A]
C C D C | C C (G, A,) | B, C B, B, | (C B,) A,2 |
C C D C | C B, (G, A,) | B, C C B, | (A, B,) C2 |
C D E E | E ^C A,2 | B, C B, B, | A,2 (B, A,) |
w:1~Good King Wen-ces-las looked out,_ On the feast of Ste_phen, When the snow lay round a- bout,_ Deep and crisp and e_ven: Bright-ly shone the moon that night, Though the frost was cru-el,_ 
%
w:2~"Hi-ther, page, and stand by me,_ if thou know'st it, tel_ling, Yon-der pea-sant, who is he?_ Where and what his dwel_ling?" "Sire, he lives a good league hence, un-der-neath the moun-tain;_
%
w:3~"Bring me flesh, and bring me wine,_ bring me pine logs hi_ther: Thou and I shall see him dine,_ when we bear them thi_ther." Page and mo-narch, forth they went, forth they went to-ge-ther;_
%
w:4~"Sire, the night is dark-er now,_ and the wind blows strong_er; Fails my heart, I know not how;_ I can go no long_er." "Mark my foot-steps, good my page. Tread thou in them bold-ly_ 
%
w:5~In his mas-ter's steps he trod,_ where the snow lay dint_ed; Heat was in the ver-y sod_ which the saint had print_ed. There-fore, Chris-tian men, be sure, wealth or rank pos-ses-sing,_ 
%
[V:T]
A, A, A, G, | A, F, E,2 | F, F, F, G, | (A, G,) F,2 |
A, A, B, B, | A, D, E,2 | F, F, A, G, | (F, G,) A,2 |
F, F, C B, | A, E, F,2 | F, F, F, G, | (F, E,) D,2 |
P:B
[V:S] C C D E | F F G2 | c B A G | (F2 B2) | F4|]
[V:A] G, C C B, | A, =B, C2 | C D C B, | (A,2 D2) | C4|]
w: When a poor man came in sight, Gath'- ring win-ter fu_el.
w: Right a-gainst the for-est fence, by Saint Ag-nes' foun_tain."
w: Through the rude wind's wild la-ment and the bit-ter wea_ther.
w: Thou shalt find the win-ter's rage freeze thy blood less cold_ly."
w: Ye who now will bless the poor, shall your-selves find bles_sing.
[V:T] E, F, A, G, | F, F, E,2 | F, F, E, E, | F,4 | [F,4A,4]|]

